%
(Header)
(Generated by gcodetools from Inkscape.)
(Using default header. To add your own header create file "header" in the output dir.)
M3
(Header end.)
G21 (All units in mm)

(Start cutting path id: text1)
(Change tool to Cylindrical cutter)

G00 Z5.000000
G00 X68.914537 Y31.082826

G01 Z-1.000000 F100.0(Penetrate)
G01 X68.914537 Y11.784803 Z-1.000000 F100.000000
G01 X71.097347 Y11.784803 Z-1.000000
G01 X71.246175 Y12.429724 Z-1.000000
G03 X72.120774 Y12.002763 Z-1.000000 I4.768007 J8.657657
G03 X72.982501 Y11.685584 Z-1.000000 I3.465747 J8.086742
G03 X73.875756 Y11.480692 Z-1.000000 I1.610433 J4.971314
G03 X75.041285 Y11.400332 Z-1.000000 I1.165529 J8.412164
G03 X76.278439 Y11.527966 Z-1.000000 I-0.000000 J6.059671
G03 X77.360521 Y11.884022 Z-1.000000 I-1.037861 J4.976445
G03 X78.340919 Y12.479390 Z-1.000000 I-2.310090 J4.908940
G03 X79.295285 Y13.359900 Z-1.000000 I-4.217085 J5.528269
G03 X80.012543 Y14.368913 Z-1.000000 I-4.448241 J3.921476
G03 X80.609931 Y15.691538 Z-1.000000 I-7.098950 J4.002599
G03 X80.970924 Y17.104000 Z-1.000000 I-7.407603 J2.645572
G03 X81.106025 Y18.816924 Z-1.000000 I-10.791425 J1.712925
G03 X80.672707 Y22.106919 Z-1.000000 I-12.706412 J-0.000000
G03 X79.679758 Y24.137522 Z-1.000000 I-5.694536 J-1.526509
G03 X78.011993 Y25.514877 Z-1.000000 I-3.685357 J-2.764017
G03 X75.810232 Y26.022676 Z-1.000000 I-2.201762 J-4.519406
G03 X74.464885 Y25.882938 Z-1.000000 I-0.000000 J-6.546149
G03 X73.329766 Y25.501778 Z-1.000000 I1.054357 J-5.020748
G03 X72.268354 Y24.925668 Z-1.000000 I3.854929 J-8.368046
G03 X71.246175 Y24.187131 Z-1.000000 I5.360577 J-8.496009
G01 X71.246175 Y31.082826 Z-1.000000
G01 X68.914537 Y31.082826 Z-1.000000
G00 Z5.000000

(End cutting path id: text1)


(Start cutting path id: text1)
(Change tool to Cylindrical cutter)

G00 Z5.000000
G00 X75.239722 Y23.802660

G01 Z-1.000000 F100.0(Penetrate)
G02 X76.857354 Y23.428835 Z-1.000000 I-0.000000 J-3.686859 F100.000000
G02 X77.881419 Y22.512818 Z-1.000000 I-1.107852 J-2.268964
G02 X78.441116 Y21.159558 Z-1.000000 I-3.487780 J-2.234888
G02 X78.699973 Y18.754911 Z-1.000000 I-11.039522 J-2.404647
G02 X78.349226 Y16.169345 Z-1.000000 I-9.705257 J-0.000000
G02 X77.596167 Y14.761362 Z-1.000000 I-3.503087 J0.968245
G02 X76.341964 Y13.851789 Z-1.000000 I-2.556422 J2.205541
G02 X74.569999 Y13.496324 Z-1.000000 I-1.771965 J4.238819
G02 X73.670330 Y13.544262 Z-1.000000 I-0.000000 J8.466260
G02 X72.945293 Y13.669957 Z-1.000000 I0.600164 J5.615815
G02 X72.251299 Y13.881137 Z-1.000000 I1.586801 J6.460549
G02 X71.246175 Y14.290073 Z-1.000000 I5.103670 J13.984035
G01 X71.246175 Y22.227563 Z-1.000000
G02 X72.177086 Y22.857026 Z-1.000000 I5.192428 J-6.675979
G02 X73.180938 Y23.356176 Z-1.000000 I4.241387 J-7.270933
G02 X74.244626 Y23.695998 Z-1.000000 I2.302515 J-5.372534
G02 X75.239722 Y23.802660 Z-1.000000 I0.995096 J-4.588488
G01 X75.239722 Y23.802660 Z-1.000000
G00 Z5.000000

(End cutting path id: text1)


(Start cutting path id: text1)
(Change tool to Cylindrical cutter)

G00 Z5.000000
G00 X89.477595 Y25.973066

G01 Z-1.000000 F100.0(Penetrate)
G03 X88.229659 Y25.918384 Z-1.000000 I-0.000000 J-14.267286 F100.000000
G03 X86.935119 Y25.749824 Z-1.000000 I1.363031 J-15.523420
G03 X85.650006 Y25.505323 Z-1.000000 I6.707647 J-38.755292
G03 X84.963147 Y25.340549 Z-1.000000 I2.330196 J-11.227373
G01 X84.963147 Y22.971703 Z-1.000000
G01 X85.087173 Y22.971703 Z-1.000000
G02 X86.303768 Y23.384283 Z-1.000000 I6.113771 J-16.027943
G02 X87.418811 Y23.666233 Z-1.000000 I3.925331 J-13.177898
G02 X88.553399 Y23.859221 Z-1.000000 I2.581971 J-11.747928
G02 X89.465194 Y23.914280 Z-1.000000 I0.911794 J-7.522308
G02 X90.219903 Y23.888508 Z-1.000000 I-0.000000 J-11.063382
G02 X90.916265 Y23.815061 Z-1.000000 I-0.648917 J-9.490396
G02 X91.591235 Y23.659071 Z-1.000000 I-0.575491 J-4.028439
G02 X92.106888 Y23.430590 Z-1.000000 I-0.828787 J-2.566600
G02 X92.566533 Y23.073885 Z-1.000000 I-1.028346 J-1.799605
G02 X92.900637 Y22.612037 Z-1.000000 I-1.428287 J-1.385006
G02 X93.103042 Y22.069939 Z-1.000000 I-1.772334 J-0.970577
G02 X93.185892 Y21.297390 Z-1.000000 I-3.560457 J-0.772549
G01 X93.185892 Y20.937721 Z-1.000000
G03 X91.154297 Y20.808787 Z-1.000000 I3.388074 J-69.455517
G03 X89.378376 Y20.640065 Z-1.000000 I4.162028 J-53.239251
G03 X87.635748 Y20.327061 Z-1.000000 I1.485878 J-13.280008
G03 X86.339807 Y19.883525 Z-1.000000 I1.932286 J-7.760850
G03 X85.198361 Y19.190942 Z-1.000000 I2.157987 J-4.843482
G03 X84.405044 Y18.345636 Z-1.000000 I2.487471 J-3.129400
G03 X83.931360 Y17.317015 Z-1.000000 I2.689238 J-1.861780
G03 X83.735318 Y15.803157 Z-1.000000 I5.747057 J-1.513857
G03 X84.085887 Y14.031042 Z-1.000000 I4.654278 J-0.000000
G03 X85.037564 Y12.640565 Z-1.000000 I3.744275 J1.541760
G03 X86.471033 Y11.728403 Z-1.000000 I3.034327 J3.186033
G03 X88.212560 Y11.400332 Z-1.000000 I1.741527 J4.458309
G03 X89.222288 Y11.456645 Z-1.000000 I0.000000 J9.080741
G03 X89.986091 Y11.598769 Z-1.000000 I-0.595929 J5.326105
G03 X90.729700 Y11.820445 Z-1.000000 I-1.906878 J7.754637
G03 X91.325543 Y12.070058 Z-1.000000 I-1.837159 J5.221400
G03 X91.807163 Y12.318486 Z-1.000000 I-2.084491 J4.632201
G03 X92.342534 Y12.665370 Z-1.000000 I-3.555899 J6.074660
G02 X92.877714 Y13.047156 Z-1.000000 I38.551351 J-53.474455
G02 X93.185892 Y13.260681 Z-1.000000 I12.364764 J-17.516749
G01 X93.185892 Y11.784803 Z-1.000000
G01 X95.505129 Y11.784803 Z-1.000000
G01 X95.505129 Y21.185768 Z-1.000000
G03 X95.386336 Y22.499617 Z-1.000000 I-7.325207 J-0.000022
G03 X95.095851 Y23.430590 Z-1.000000 I-3.938265 J-0.718023
G03 X94.587963 Y24.255835 Z-1.000000 I-3.482031 J-1.574069
G03 X93.905227 Y24.906466 Z-1.000000 I-2.817283 J-2.272770
G03 X93.066117 Y25.388622 Z-1.000000 I-2.565154 J-3.492976
G03 X92.020073 Y25.725020 Z-1.000000 I-2.225091 J-5.124451
G03 X90.933035 Y25.902237 Z-1.000000 I-1.918536 J-8.345630
G03 X89.477595 Y25.973066 Z-1.000000 I-1.455441 J-14.918260
G01 X89.477595 Y25.973066 Z-1.000000
G00 Z5.000000

(End cutting path id: text1)


(Start cutting path id: text1)
(Change tool to Cylindrical cutter)

G00 Z5.000000
G00 X93.185892 Y19.052567

G01 Z-1.000000 F100.0(Penetrate)
G01 X93.185892 Y15.195445 Z-1.000000 F100.000000
G02 X92.286730 Y14.576222 Z-1.000000 I-6.177951 J8.008455
G02 X91.300738 Y14.042027 Z-1.000000 I-5.569270 J9.102442
G02 X90.256268 Y13.695383 Z-1.000000 I-2.042640 J4.407803
G02 X89.055918 Y13.570738 Z-1.000000 I-1.200350 J5.717461
G02 X87.647589 Y13.758311 Z-1.000000 I-0.000000 J5.380784
G02 X86.860705 Y14.166050 Z-1.000000 I0.547990 J2.020712
G02 X86.351844 Y14.871481 Z-1.000000 I1.159890 J1.372931
G02 X86.141370 Y15.964389 Z-1.000000 I2.732273 J1.092907
G02 X86.319204 Y16.942790 Z-1.000000 I2.780377 J-0.000000
G02 X86.761486 Y17.613897 Z-1.000000 I1.700125 J-0.639146
G02 X87.441247 Y18.118873 Z-1.000000 I2.179827 J-2.224313
G02 X88.386190 Y18.506865 Z-1.000000 I2.182850 J-3.971578
G02 X89.238614 Y18.692471 Z-1.000000 I2.022555 J-7.238616
G02 X90.668218 Y18.866534 Z-1.000000 I3.188730 J-20.231794
G02 X92.119893 Y18.982200 Z-1.000000 I10.778335 J-126.106863
G02 X93.185892 Y19.052567 Z-1.000000 I5.019950 J-67.937589
G01 X93.185892 Y19.052567 Z-1.000000
G00 Z5.000000

(End cutting path id: text1)


(Start cutting path id: text1)
(Change tool to Cylindrical cutter)

G00 Z5.000000
G00 X108.812826 Y30.586732

G01 Z-1.000000 F100.0(Penetrate)
G03 X104.601711 Y29.849406 Z-1.000000 I-0.000000 J-12.394198 F100.000000
G03 X101.706293 Y28.019452 Z-1.000000 I2.703123 J-7.482571
G03 X99.863401 Y25.157295 Z-1.000000 I5.533719 J-5.587444
G03 X99.126609 Y21.036940 Z-1.000000 I11.152651 J-4.120344
G03 X99.320934 Y18.654477 Z-1.000000 I14.701896 J0.000000
G03 X99.821139 Y16.807747 Z-1.000000 I9.294126 J1.526300
G03 X100.686682 Y15.124403 Z-1.000000 I8.315572 J3.211513
G03 X101.793108 Y13.806384 Z-1.000000 I6.157847 J4.045861
G03 X103.159539 Y12.785906 Z-1.000000 I5.153771 J5.475882
G03 X104.856482 Y12.020449 Z-1.000000 I4.512805 J7.740737
G03 X106.680540 Y11.584662 Z-1.000000 I3.464331 J10.465190
G03 X108.812826 Y11.425137 Z-1.000000 I2.132286 J14.170812
G03 X110.470227 Y11.546266 Z-1.000000 I-0.000000 J11.399571
G03 X112.273076 Y11.933631 Z-1.000000 I-2.040700 J13.886752
G03 X114.048605 Y12.515836 Z-1.000000 I-7.445732 J25.705447
G03 X115.584497 Y13.149059 Z-1.000000 I-7.289119 J19.859138
G01 X115.584497 Y21.074148 Z-1.000000
G01 X108.205113 Y21.074148 Z-1.000000
G01 X108.205113 Y18.916143 Z-1.000000
G01 X113.153640 Y18.916143 Z-1.000000
G01 X113.153640 Y14.389292 Z-1.000000
G02 X112.245052 Y14.068614 Z-1.000000 I-3.340364 J8.016875
G02 X111.070049 Y13.781579 Z-1.000000 I-3.832337 J13.139498
G02 X109.886002 Y13.604719 Z-1.000000 I-2.390782 J11.953910
G02 X108.701206 Y13.545934 Z-1.000000 I-1.184796 J11.910231
G02 X105.692698 Y14.107064 Z-1.000000 I-0.000000 J8.345642
G02 X103.566639 Y15.530306 Z-1.000000 I2.102606 J5.440490
G02 X102.234371 Y17.746838 Z-1.000000 I4.397901 J4.152056
G02 X101.681486 Y21.111354 Z-1.000000 I9.960738 J3.364516
G02 X102.201528 Y24.309005 Z-1.000000 I10.090931 J0.000000
G02 X103.479824 Y26.493964 Z-1.000000 I5.843618 J-1.952364
G02 X105.537763 Y27.932868 Z-1.000000 I4.186433 J-3.796393
G02 X108.391146 Y28.490740 Z-1.000000 I2.853383 J-7.018251
G02 X109.759197 Y28.418394 Z-1.000000 I0.000000 J-12.970979
G02 X110.846807 Y28.230290 Z-1.000000 I-0.888055 J-8.373002
G02 X111.922111 Y27.934102 Z-1.000000 I-2.728985 J-12.007532
G02 X112.793972 Y27.597773 Z-1.000000 I-2.670271 J-8.220319
G02 X113.485310 Y27.247162 Z-1.000000 I-3.886039 J-8.519442
G02 X114.232642 Y26.791620 Z-1.000000 I-5.835656 J-10.414368
G02 X114.957572 Y26.298427 Z-1.000000 I-18.143707 J-27.448320
G02 X115.348854 Y26.010275 Z-1.000000 I-5.797782 J-8.282525
G01 X115.572093 Y26.010275 Z-1.000000
G01 X115.572093 Y28.924820 Z-1.000000
G03 X113.640242 Y29.731208 Z-1.000000 I-9.063517 J-18.996099
G03 X112.025030 Y30.202262 Z-1.000000 I-4.606864 J-12.791872
G03 X110.377113 Y30.493450 Z-1.000000 I-3.431774 J-14.612752
G03 X108.812826 Y30.586732 Z-1.000000 I-1.564288 J-13.069456
G01 X108.812826 Y30.586732 Z-1.000000
G00 Z5.000000

(End cutting path id: text1)


(Start cutting path id: text1)
(Change tool to Cylindrical cutter)

G00 Z5.000000
G00 X59.538377 Y26.022676

G01 Z-1.000000 F100.0(Penetrate)
G03 X56.750472 Y25.475045 Z-1.000000 I-0.000000 J-7.370216 F100.000000
G03 X54.651857 Y24.025902 Z-1.000000 I2.246329 J-5.497236
G03 X53.335124 Y21.821040 Z-1.000000 I4.556095 J-4.216483
G03 X52.803912 Y18.630888 Z-1.000000 I9.313492 J-3.190152
G03 X53.368253 Y15.434603 Z-1.000000 I9.333636 J-0.000000
G03 X54.738675 Y13.322692 Z-1.000000 I5.276056 J1.923048
G03 X56.891878 Y12.004680 Z-1.000000 I4.072633 J4.235538
G03 X60.121285 Y11.462342 Z-1.000000 I3.229407 J9.343751
G03 X61.461539 Y11.548967 Z-1.000000 I-0.000000 J10.411457
G03 X62.700970 Y11.797207 Z-1.000000 I-1.187230 J9.145997
G03 X63.915032 Y12.171954 Z-1.000000 I-5.044646 J18.497034
G03 X65.107021 Y12.628161 Z-1.000000 I-6.315048 J18.285421
G01 X65.107021 Y15.170640 Z-1.000000
G01 X64.982998 Y15.170640 Z-1.000000
G02 X64.325336 Y14.705567 Z-1.000000 I-2.321508 J2.585315
G02 X62.936612 Y14.054430 Z-1.000000 I-6.032997 J11.060509
G02 X61.484856 Y13.631445 Z-1.000000 I-3.083195 J7.879211
G02 X60.096481 Y13.496324 Z-1.000000 I-1.388375 J7.065275
G02 X59.042793 Y13.575895 Z-1.000000 I-0.000000 J7.016348
G02 X58.136913 Y13.793980 Z-1.000000 I0.819272 J5.393543
G02 X57.304852 Y14.173348 Z-1.000000 I1.440639 J4.261890
G02 X56.611428 Y14.686948 Z-1.000000 I2.023704 J3.457156
G02 X56.029681 Y15.356231 Z-1.000000 I2.523152 J2.780617
G02 X55.557229 Y16.237240 Z-1.000000 I3.945963 J2.683257
G02 X55.280176 Y17.213031 Z-1.000000 I4.442753 J1.788641
G02 X55.172758 Y18.469659 Z-1.000000 I7.296600 J1.256628
G01 X65.379872 Y18.469659 Z-1.000000
G01 X65.379872 Y19.734697 Z-1.000000
G03 X64.926746 Y22.570070 Z-1.000000 I-9.097526 J0.000000
G03 X63.854387 Y24.385568 Z-1.000000 I-4.661609 J-1.529013
G03 X62.133247 Y25.547078 Z-1.000000 I-3.328652 J-3.076481
G03 X59.538377 Y26.022676 Z-1.000000 I-2.594869 J-6.841031
G01 X59.538377 Y26.022676 Z-1.000000
G00 Z5.000000

(End cutting path id: text1)


(Start cutting path id: text1)
(Change tool to Cylindrical cutter)

G00 Z5.000000
G00 X59.414351 Y24.100316

G01 Z-1.000000 F100.0(Penetrate)
G02 X61.139602 Y23.796690 Z-1.000000 I0.000000 J-5.053383 F100.000000
G02 X62.180072 Y23.095726 Z-1.000000 I-0.884885 J-2.436160
G02 X62.828186 Y21.985460 Z-1.000000 I-2.256648 J-2.061611
G02 X63.110248 Y20.255594 Z-1.000000 I-5.399117 J-1.768276
G01 X55.172758 Y20.255594 Z-1.000000
G02 X55.576018 Y21.773531 Z-1.000000 I4.649586 J-0.422690
G02 X56.425392 Y22.996508 Z-1.000000 I3.816575 J-1.744225
G02 X57.669752 Y23.788473 Z-1.000000 I2.452824 J-2.480384
G02 X59.414351 Y24.100316 Z-1.000000 I1.744599 J-4.724129
G01 X59.414351 Y24.100316 Z-1.000000
G00 Z5.000000

(End cutting path id: text1)


(Start cutting path id: text1)
(Change tool to Cylindrical cutter)

G00 Z5.000000
G00 X37.611061 Y25.638205

G01 Z-1.000000 F100.0(Penetrate)
G01 X37.611061 Y16.646516 Z-1.000000 F100.000000
G03 X37.980296 Y14.209384 Z-1.000000 I8.227751 J0.000000
G03 X38.826487 Y12.727380 Z-1.000000 I3.766822 J1.168190
G03 X40.209004 Y11.779953 Z-1.000000 I2.728319 J2.498834
G03 X42.224727 Y11.400332 Z-1.000000 I2.015723 J5.161764
G03 X43.498237 Y11.531580 Z-1.000000 I-0.000000 J6.244097
G03 X44.605974 Y11.896425 Z-1.000000 I-1.056841 J5.072836
G03 X45.643826 Y12.459687 Z-1.000000 I-3.723671 J8.098926
G03 X46.863195 Y13.322692 Z-1.000000 I-7.619891 J12.059363
G01 X46.863195 Y11.784803 Z-1.000000
G01 X49.194833 Y11.784803 Z-1.000000
G01 X49.194833 Y25.638205 Z-1.000000
G01 X46.863195 Y25.638205 Z-1.000000
G01 X46.863195 Y15.294663 Z-1.000000
G02 X45.894371 Y14.627527 Z-1.000000 I-5.728113 J7.281407
G02 X44.854021 Y14.091636 Z-1.000000 I-4.710987 J7.867873
G02 X43.765446 Y13.724445 Z-1.000000 I-2.562141 J5.798530
G02 X42.882049 Y13.620348 Z-1.000000 I-0.883397 J3.696324
G02 X41.882629 Y13.699796 Z-1.000000 I-0.000000 J6.325828
G02 X41.331760 Y13.868394 Z-1.000000 I0.329988 J2.062429
G02 X40.858543 Y14.183871 Z-1.000000 I0.788660 J1.695644
G02 X40.463594 Y14.662143 Z-1.000000 I1.501005 J1.641712
G02 X40.207419 Y15.218757 Z-1.000000 I2.335351 J1.412073
G02 X40.041917 Y15.939584 Z-1.000000 I3.775324 J1.246228
G02 X39.971508 Y16.698007 Z-1.000000 I9.983641 J1.309330
G02 X39.942699 Y17.750324 Z-1.000000 I19.204782 J1.052317
G01 X39.942699 Y25.638205 Z-1.000000
G01 X37.611061 Y25.638205 Z-1.000000
G00 Z5.000000

(End cutting path id: text1)


(Start cutting path id: text1)
(Change tool to Cylindrical cutter)

G00 Z5.000000
G00 X26.870644 Y25.638205

G01 Z-1.000000 F100.0(Penetrate)
G01 X26.870644 Y11.784803 Z-1.000000 F100.000000
G01 X29.202280 Y11.784803 Z-1.000000
G01 X29.202280 Y21.619850 Z-1.000000
G02 X30.169923 Y22.316738 Z-1.000000 I6.416497 J-7.889203
G02 X31.137043 Y22.847680 Z-1.000000 I4.664289 J-7.349805
G02 X32.169126 Y23.210923 Z-1.000000 I2.155849 J-4.477567
G02 X33.220634 Y23.331372 Z-1.000000 I1.051508 J-4.529548
G02 X33.889214 Y23.313415 Z-1.000000 I-0.000000 J-12.455417
G02 X34.374052 Y23.269359 Z-1.000000 I-0.354032 J-6.585987
G02 X34.867272 Y23.202676 Z-1.000000 I-0.713407 J-7.134072
G02 X35.391043 Y23.095726 Z-1.000000 I-1.392026 J-8.153297
G01 X35.515066 Y23.095726 Z-1.000000
G01 X35.515066 Y25.489377 Z-1.000000
G03 X34.968602 Y25.570101 Z-1.000000 I-3.899377 J-24.507011
G03 X34.696513 Y25.600996 Z-1.000000 I-0.823614 J-6.039763
G03 X34.422795 Y25.625382 Z-1.000000 I-0.398310 J-2.922499
G03 X33.815946 Y25.638205 Z-1.000000 I-0.606849 J-14.353339
G03 X32.736595 Y25.522368 Z-1.000000 I0.000000 J-5.086544
G03 X31.645540 Y25.166916 Z-1.000000 I1.206038 J-5.554137
G03 X30.639555 Y24.628280 Z-1.000000 I2.813341 J-6.463080
G03 X29.202280 Y23.591819 Z-1.000000 I9.210505 J-14.287107
G01 X29.202280 Y25.638205 Z-1.000000
G01 X26.870644 Y25.638205 Z-1.000000
G00 Z5.000000

(End cutting path id: text1)


(Start cutting path id: text1)
(Change tool to Cylindrical cutter)

G00 Z5.000000
G00 X14.195464 Y28.143475

G01 Z-1.000000 F100.0(Penetrate)
G01 X16.626321 Y28.143475 Z-1.000000 F100.000000
G02 X17.786218 Y28.091199 Z-1.000000 I-0.000000 J-12.893992
G02 X18.548681 Y27.969842 Z-1.000000 I-0.512865 J-5.678146
G02 X19.291573 Y27.745243 Z-1.000000 I-0.917416 J-4.375368
G02 X19.912938 Y27.424140 Z-1.000000 I-1.348464 J-3.371160
G02 X20.511951 Y26.905227 Z-1.000000 I-1.620709 J-2.476083
G02 X20.929928 Y26.270722 Z-1.000000 I-2.040256 J-1.798932
G02 X21.171627 Y25.542840 Z-1.000000 I-2.853073 J-1.351456
G02 X21.264791 Y24.608810 Z-1.000000 I-4.635556 J-0.934030
G02 X21.197508 Y23.802530 Z-1.000000 I-4.864643 J0.000000
G02 X21.016745 Y23.132935 Z-1.000000 I-3.525274 J0.592484
G02 X20.711511 Y22.519195 Z-1.000000 I-2.756852 J0.988306
G02 X20.198191 Y21.880298 Z-1.000000 I-3.504802 J2.290262
G02 X19.558163 Y21.393687 Z-1.000000 I-2.106774 J2.106774
G02 X18.685107 Y21.024539 Z-1.000000 I-2.038719 J3.604703
G02 X17.744037 Y20.843411 Z-1.000000 I-1.560947 J5.574809
G02 X16.266653 Y20.764089 Z-1.000000 I-1.477384 J13.718425
G01 X14.195464 Y20.764089 Z-1.000000
G01 X14.195464 Y28.143475 Z-1.000000
G00 Z5.000000

(End cutting path id: text1)


(Start cutting path id: text1)
(Change tool to Cylindrical cutter)

G00 Z5.000000
G00 X11.739803 Y30.251871

G01 Z-1.000000 F100.0(Penetrate)
G01 X11.739803 Y11.784803 Z-1.000000 F100.000000
G01 X14.195464 Y11.784803 Z-1.000000
G01 X14.195464 Y18.668096 Z-1.000000
G01 X16.651125 Y18.668096 Z-1.000000
G03 X18.610978 Y18.807899 Z-1.000000 I0.000000 J13.807199
G03 X19.937742 Y19.139385 Z-1.000000 I-0.949417 J6.620932
G03 X21.160209 Y19.747398 Z-1.000000 I-2.248666 J6.054102
G03 X22.194966 Y20.578055 Z-1.000000 I-3.278606 J5.144019
G03 X22.871261 Y21.408365 Z-1.000000 I-3.722991 J3.722991
G03 X23.385589 Y22.388795 Z-1.000000 I-4.702298 J3.091922
G03 X23.706050 Y23.465470 Z-1.000000 I-5.134940 J2.114387
G03 X23.819671 Y24.670823 Z-1.000000 I-6.336715 J1.205353
G03 X23.650223 Y26.239397 Z-1.000000 I-7.344834 J0.000000
G03 X23.236761 Y27.337322 Z-1.000000 I-3.967696 J-0.867358
G03 X22.555339 Y28.290637 Z-1.000000 I-4.148198 J-2.244907
G03 X21.612056 Y29.098453 Z-1.000000 I-3.893955 J-3.592311
G03 X20.679040 Y29.601658 Z-1.000000 I-3.152867 J-4.729300
G03 X19.565672 Y29.966616 Z-1.000000 I-2.711827 J-6.392164
G03 X18.402088 Y30.168405 Z-1.000000 I-2.005795 J-8.110389
G03 X16.750344 Y30.251871 Z-1.000000 I-1.651744 J-16.301846
G01 X11.739803 Y30.251871 Z-1.000000
G00 Z5.000000

(End cutting path id: text1)


(Footer)
M5
G00 X0.0000 Y0.0000
M2
(Using default footer. To add your own footer create file "footer" in the output dir.)
(end)
%